X:156
T:Sing, Sally O! (b)
M:C
L:1/8
Q:1/4=120
K:Dm
c=B|\
A>GA>=B (c>B)cA|c2c (d2B)G2|A2A>G A4|G2A>G D2c=B|
A3   =B  c3   A|c2c (d2B)G2|A2A>G A4|G2A>G D2   ||
